X: 1812
T: Polly Milk the Cow
B: australian traditional tunes wiki
M:6/8
L:1/8
R: Jig
Q: 3/8=100
K:D
V:1 
F2G|"D"ABA F2A|"Bm"B2AF2G|"D"A2dF2B|"A7"A3-A2F|"G"G2BE2F|G3G3|"D"F2AD2F|A3F2G|
"D"ABA F2A|"Bm"B2AF2G|"D"A2dF2B|"A7"A3-A2d|c2BE2G|c2B GFE|"D"D3DDD|[D3A3]-[D2A2]d||
"D"fffe2d|"A7"e3d3|"D"F2GA2B|A3-A2d|"A7"c2BE2F|"Em"G2E "A7"c2B|GBA "D"F2G|A3-AFA|
"D"fffe2d|"A7"e3d3|"D"F2GA2B|A3-A2d|"A7"c2BE2F|c2B GFE|"D"D3 DDD|D3||
% abcbook-tune_id 6342d53a965f6ea54c994aaf


% abcbook-boost 0
% abcbook-tablature 
% abcbook-transpose 
% abcbook-lastupdated 1665324385427
% abcbook-soundfonts 
% abcbook-repeats 1
% NFF Book 2007

